X:2
T: I see by your eyes, Boda Polska          % name
C: Vispolska e. Rjaas Jonas, Boda, Dalarna          % composer
N: Taught by Thomas Westling, 2/20/05; transcr. by Karen Myers, 2/05 Scandia Festival, Petaluma CA     % info
Q:1/4=105     %Tempo
M:3/4     %Meter
L:1/8     %
K:C
(A>c) e2 d2 |(^f2e2) (d2 |^f>e) c>(d c>)A |
(B^G) (uA2 A>)(A | A>)c e2 (c2 | d>)(f a2) (g2|
g>)(e f>)(g f>)e |[1(dc/d/) (e2 e>)(A  :| [2(d)c/d/) (e2 e>)e ||
|: e>(e a2) (a>f- | f/e/)f/a/ g2 g>e | (ec) f2 (f2 | ed) [d2-D2-] [dD]>^c |
^c>(d e2) (g2- | g/a/)g/e/ f2 (d2 | e>)(d c>)(d c>)A | (B^G) (A2 A>)A |
A>A a2 a>(f-|f/e/)f/a/ g2 (g>e- | ec) f2 (f2 | ed) [d2-D2-] [dD]>(^c|
^c>)(d e2) (g2- | g/a/)g/e/ f2 (d2 | e>)(d c>)d c>A | (B^G) A4 |]
